brandFactory_export/2.Regular/Flecha Abajo Izquierda_2Regular.svg

<?xml version="1.0" encoding="UTF-8"?>
<svg width="24px" height="24px" viewBox="0 0 24 24" version="1.1" xmlns="http://www.w3.org/2000/svg" xmlns:xlink="http://www.w3.org/1999/xlink">
    <title>2.Regular/Flecha Abajo Izquierda_2Regular</title>
    <g id="Symbols" stroke="none" stroke-width="1" fill="none" fill-rule="evenodd">
        <g id="2.Regular/Flecha-Abajo-Izquierda_2Regular" fill="#5CB615" fill-rule="nonzero">
            <path d="M3.10252101,22.3092437 C2.80336134,22.3092437 2.53445378,22.2016807 2.33277311,22 C2.11092437,21.7781513 2.00336134,21.4756303 2.0302521,21.1394958 L2.03697479,6.56470588 C2.03361345,6.05378151 2.30588235,5.62689076 2.77310924,5.41848739 C3.3210084,5.17310924 4.0302521,5.28403361 4.4605042,5.67731092 C4.46722689,5.68403361 4.47394958,5.6907563 4.48067227,5.69411765 L7.33445378,8.54789916 L13.0823529,2.66218487 L13.0890756,2.65546218 C13.9630252,1.78151261 14.9714286,1.79159664 15.8554622,2.67563025 L21.9159664,8.70588235 L21.9361345,8.72605042 C22.3193277,9.14285714 22.4638655,9.57647059 22.3697479,10.0201681 C22.2823529,10.4235294 22.0067227,10.7462185 21.7445378,11.0084034 L21.7277311,11.0252101 L15.5831933,16.8033613 L18.6789916,19.8957983 L18.6890756,19.9058824 C19.0689076,20.302521 19.1798319,20.9781513 18.9512605,21.512605 C18.7394958,22.010084 18.2722689,22.3058824 17.7008403,22.3058824 L3.19663866,22.3058824 C3.16302521,22.3092437 3.13277311,22.3092437 3.10252101,22.3092437 L3.10252101,22.3092437 Z M3.3210084,21.0151261 L17.7008403,21.0151261 C17.7344538,21.0151261 17.7546218,21.0117647 17.7647059,21.0084034 C17.7915966,20.9647059 17.7848739,20.8436975 17.7546218,20.7966387 L14.5714286,17.6134454 C14.3529412,17.394958 14.2319328,17.0890756 14.2420168,16.7731092 C14.2521008,16.4672269 14.3764706,16.1815126 14.594958,15.9630252 L14.6084034,15.9495798 L20.8336134,10.097479 C21.0352941,9.89243697 21.0857143,9.80168067 21.0991597,9.76806723 C21.0890756,9.74789916 21.0621849,9.69747899 20.9882353,9.61344538 L14.9411765,3.59327731 C14.7529412,3.40504202 14.5815126,3.30084034 14.4605042,3.29747899 C14.3092437,3.29747899 14.1277311,3.44201681 14.0033613,3.5697479 L8.17478992,9.53613445 L8.16806723,9.54285714 C7.70756303,10.0033613 6.96806723,10.0134454 6.51764706,9.56302521 L3.57983193,6.62521008 C3.52941176,6.58823529 3.40168067,6.57142857 3.32436975,6.58823529 L3.3210084,21.0151261 Z" id="Flecha-Abajo-Izquierda_2Regular"></path>
        </g>
    </g>
</svg>

<svg width="24" height="24" viewBox="0 0 24 24" xmlns="http://www.w3.org/2000/svg"><path d="M3.103 22.31c-.3 0-.569-.108-.77-.31a1.068 1.068 0 01-.303-.86l.007-14.575a1.21 1.21 0 01.736-1.147c.548-.245 1.257-.134 1.688.26.006.006.013.013.02.016l2.853 2.854 5.748-5.886.007-.007c.874-.873 1.882-.863 2.766.02l6.061 6.03.02.021c.383.417.528.85.434 1.294-.088.404-.363.726-.625.988l-.017.017-6.145 5.778 3.096 3.093.01.01c.38.397.49 1.072.262 1.607-.212.497-.679.793-1.25.793H3.197c-.034.003-.064.003-.094.003zm.218-1.295h14.38a.22.22 0 00.064-.007c.027-.043.02-.164-.01-.211l-3.184-3.184a1.14 1.14 0 01-.329-.84c.01-.306.134-.591.353-.81l.013-.013 6.226-5.853c.201-.205.252-.295.265-.329a.725.725 0 00-.11-.155l-6.048-6.02c-.188-.188-.36-.292-.48-.296-.152 0-.333.145-.458.273L8.175 9.536l-.007.007c-.46.46-1.2.47-1.65.02L3.58 6.625c-.05-.037-.178-.054-.256-.037l-.003 14.427z" fill="#5CB615" fill-rule="nonzero"/></svg>
